src/topics/icons/rsa.svg

<svg height="129" preserveAspectRatio="xMidYMid" viewBox="0 0 256 129" width="256" xmlns="http://www.w3.org/2000/svg"><path d="m.86040237.53926627v127.53344373h179.78470963l14.843456-32.0787692 15.081278 32.3150772h44.974201v-127.77732569z" fill="#d9222a"/><g fill="#fff"><path d="m232.710059 95.9666746-30.895716-70.5302722.012119-.0045444h-.012119v-.007574l-.004544.007574h-12.407669l-30.198911 70.5620828h13.307456l22.990011-55.3338698 23.974628 55.3338698z"/><path d="m71.2906982 65.7677633c9.6977042-3.6218698 14.336-11.6305799 14.2239054-19.7907692-.1726864-12.3864616-9.8885681-21.0328994-23.6307693-21.0328994h-29.7156923v70.9347219h10.8216805v-60.5765681h18.2774911c6.1258225 0 12.7045681 3.1871243 12.8121184 10.8247101.0924023 6.8029349-4.9851835 11.051929-13.5892071 11.4185089l-.1681421.0075739-6.5560236.0560474 21.8296804 38.384852 12.7833373-.0272662s-10.5020591-18.5562131-17.0883787-30.1989113"/><path d="m100.183858 43.2609704c0 14.1254438 14.017893 18.1108639 24.916828 21.1828639 11.353373 3.2098462 15.308497 6.8286864 15.308497 12.3137515 0 9.1493491-9.279621 10.5777988-15.019171 10.5777988-7.881468 0-14.382959-2.2009941-20.745089-6.1288521l-5.4290177 9.1993373c8.0268877 4.9488284 16.3461307 7.255858 26.1741067 7.255858 16.417325 0 27.323834-8.5055621 27.323834-21.6706272 0-14.7025799-13.268071-18.7713136-24.423006-21.9251124-11.362461-3.211361-15.805349-5.9258699-15.805349-11.4139645 0-8.3101539 10.171834-9.1175385 13.814911-9.1175385 5.730462 0 13.015101 1.9192426 17.329231 4.1459882l4.567101-8.9918107c-5.816805-3.0083787-14.74045-5.0215384-22.200805-5.0215384-15.873515 0-25.812071 7.2270769-25.812071 19.5938461"/></g></svg>

<?xml version="1.0" encoding="UTF-8" standalone="no"?>
<svg width="256px" height="129px" viewBox="0 0 256 129" version="1.1" xmlns="http://www.w3.org/2000/svg" xmlns:xlink="http://www.w3.org/1999/xlink" preserveAspectRatio="xMidYMid">
	<g>
		<path d="M0.860402367,0.539266272 L0.860402367,128.07271 L180.645112,128.07271 L195.488568,95.9939408 L210.569846,128.309018 L255.544047,128.309018 L255.544047,0.531692308 L0.860402367,0.539266272" fill="#D9222A"></path>
		<path d="M232.710059,95.9666746 L201.814343,25.4364024 L201.826462,25.431858 L201.814343,25.431858 L201.814343,25.424284 L201.809799,25.431858 L189.40213,25.431858 L159.203219,95.9939408 L172.510675,95.9939408 L195.500686,40.660071 L219.475314,95.9939408 L232.710059,95.9666746" fill="#FFFFFF"></path>
		<path d="M71.2906982,65.7677633 C80.9884024,62.1458935 85.6266982,54.1371834 85.5146036,45.9769941 C85.3419172,33.5905325 75.6260355,24.9440947 61.8838343,24.9440947 L32.168142,24.9440947 L32.168142,95.8788166 L42.9898225,95.8788166 L42.9898225,35.3022485 L61.2673136,35.3022485 C67.3931361,35.3022485 73.9718817,38.4893728 74.079432,46.1269586 C74.1718343,52.9298935 69.0942485,57.1788876 60.4902249,57.5454675 L60.3220828,57.5530414 L53.7660592,57.6090888 L75.5957396,95.9939408 L88.3790769,95.9666746 C88.3790769,95.9666746 77.8770178,77.4104615 71.2906982,65.7677633" fill="#FFFFFF"></path>
		<path d="M100.183858,43.2609704 C100.183858,57.3864142 114.201751,61.3718343 125.100686,64.4438343 C136.454059,67.6536805 140.409183,71.2725207 140.409183,76.7575858 C140.409183,85.9069349 131.129562,87.3353846 125.390012,87.3353846 C117.508544,87.3353846 111.007053,85.1343905 104.644923,81.2065325 L99.2159053,90.4058698 C107.242793,95.3546982 115.562036,97.6617278 125.390012,97.6617278 C141.807337,97.6617278 152.713846,89.1561657 152.713846,75.9911006 C152.713846,61.2885207 139.445775,57.219787 128.29084,54.0659882 C116.928379,50.8546272 112.485491,48.1401183 112.485491,42.6520237 C112.485491,34.3418698 122.657325,33.5344852 126.300402,33.5344852 C132.030864,33.5344852 139.315503,35.4537278 143.629633,37.6804734 L148.196734,28.6886627 C142.379929,25.680284 133.456284,23.6671243 125.995929,23.6671243 C110.122414,23.6671243 100.183858,30.8942012 100.183858,43.2609704" fill="#FFFFFF"></path>
	</g>
</svg>
